X: 808
T: The Joy of My Life.
C:F. O'Neill.
B:O'Neill's Music of Ireland
N:O'Neill's - 808
Z:Transcribed by Stephen Foy (shf@access.digex.net)
Z:abc 1.6
Z:Ornament (~) is a trill.
R:Jig
M:6/8
K:G
D|GFG AGA|Bge dBA|BAB GAB|AGE ~E2 D|GFG AGA|Gge dBA|
BAB GAB|AGF G2:|f|gfe gfe|efg dBA|Bee dBA|Bee e2 f|
[1 gfe fed|efg dBA|BAB GAB|AGF F2:|[2 gbg faf|ege dBA|\
BAB GAB|AGF G2|]


